X:16441
T:The Back Grace Note Jig
Z:Jack Campin <http://www.purr.demon.co.uk/jack/> version 1.0 September 2001
N:Named by GS's son George MacLennan
C:Pipe Major George S. McLennan
S:Gordon Highlanders Pipe Music Collection volume II
B:NLS Mus.D.s.19
R:Jig
M:6/8
L:1/8
Q:3/8=124
K:Hp
e|f{g}ef B{d}c{e}B|f{g}ef B{d}c{e}B|e{g}ce A{d}B{e}A|e{g}ce         A{d}B{e}A|
  f{g}ef B{d}c{e}B|f{g}ef B{d}c{e}B|c{e}Bc AB{d}c   |d{e}B{G}B {gBG}B2      :|
c|d{e}cd B{d}c{e}B|d{e}cd B{d}c{e}B|c{e}Bc A{d}B{e}A|c{e}Bc         A{d}B{e}A|
  d{e}cd B{d}c{e}B|d{e}cd B{d}c{e}B|c{e}Bc f{g}ef   |d{e}B{G}B {gBG}B2      :|
